contributed-vectors/arlo.svg

<?xml version="1.0" encoding="UTF-8" standalone="no"?>
<svg
   xmlns:dc="http://purl.org/dc/elements/1.1/"
   xmlns:cc="http://creativecommons.org/ns#"
   xmlns:rdf="http://www.w3.org/1999/02/22-rdf-syntax-ns#"
   xmlns:svg="http://www.w3.org/2000/svg"
   xmlns="http://www.w3.org/2000/svg"
   xmlns:xlink="http://www.w3.org/1999/xlink"
   xmlns:sodipodi="http://sodipodi.sourceforge.net/DTD/sodipodi-0.dtd"
   xmlns:inkscape="http://www.inkscape.org/namespaces/inkscape"
   sodipodi:docname="arlo.svg"
   inkscape:version="1.0.1 (3bc2e813f5, 2020-09-07)"
   version="1.1"
   id="svg2"
   viewBox="0 0 192 192"
   height="192"
   width="192"
   inkscape:export-filename="/home/jphilippe/inkscape/icônes/delta-github/png/arlo.png"
   inkscape:export-xdpi="96"
   inkscape:export-ydpi="96">
  <sodipodi:namedview
     inkscape:document-rotation="0"
     inkscape:window-maximized="1"
     inkscape:window-y="0"
     inkscape:window-x="36"
     inkscape:window-height="1052"
     inkscape:window-width="1884"
     units="px"
     showgrid="false"
     inkscape:current-layer="layer1"
     inkscape:document-units="px"
     inkscape:cy="84.201084"
     inkscape:cx="-120.40286"
     inkscape:zoom="1"
     inkscape:pageshadow="2"
     inkscape:pageopacity="0.0"
     borderopacity="1.0"
     bordercolor="#666666"
     pagecolor="#ffffff"
     id="base"
     inkscape:snap-bbox="false"
     inkscape:object-paths="true"
     inkscape:snap-nodes="true"
     showguides="true"
     inkscape:guide-bbox="true"
     inkscape:snap-object-midpoints="true"
     inkscape:snap-center="true"
     inkscape:snap-global="false"
     inkscape:snap-intersection-paths="true"
     inkscape:snap-smooth-nodes="true"
     inkscape:snap-midpoints="true" />
  <defs
     id="defs4">
    <inkscape:path-effect
       effect="fillet_chamfer"
       id="path-effect1273"
       is_visible="true"
       lpeversion="1"
       satellites_param="F,0,0,1,0,0,0,1 @ F,0,0,1,0,0,0,1 @ F,0,0,1,0,0.5,0,1 @ F,0,0,1,0,0,0,1 @ F,0,0,1,0,0,0,1 @ F,0,0,1,0,0,0,1 @ F,0,0,1,0,0,0,1 @ F,0,0,1,0,0,0,1 @ F,0,0,1,0,0,0,1 @ F,0,0,1,0,0,0,1 @ F,0,0,1,0,0,0,1 @ F,0,0,1,0,0,0,1 @ F,0,0,1,0,0,0,1 @ F,0,0,1,0,0,0,1 @ F,0,0,1,0,0.5,0,1 @ F,0,0,1,0,0.5,0,1 @ F,0,0,1,0,0,0,1 @ F,0,0,1,0,0,0,1 @ F,0,0,1,0,0,0,1 @ F,0,0,1,0,0,0,1 @ F,0,0,1,0,0,0,1 @ F,0,0,1,0,0,0,1 @ F,0,0,1,0,0,0,1 @ F,0,0,1,0,0,0,1 @ F,0,0,1,0,0,0,1 @ F,0,0,1,0,0,0,1 @ F,0,0,1,0,0,0,1 @ F,0,0,1,0,0,0,1 @ F,0,0,1,0,0,0,1 @ F,0,0,1,0,0.5,0,1 @ F,0,0,1,0,0,0,1 @ F,0,0,1,0,0,0,1 | F,0,0,1,0,0.5,0,1 @ F,0,0,1,0,0,0,1 @ F,0,0,1,0,0,0,1 @ F,0,0,1,0,0,0,1 @ F,0,0,1,0,0,0,1 @ F,0,0,1,0,0,0,1 @ F,0,0,1,0,0,0,1 @ F,0,0,1,0,0,0,1 @ F,0,1,1,0,0.5,0,1 @ F,0,0,1,0,0,0,1 @ F,0,0,1,0,0,0,1 @ F,0,0,1,0,0,0,1 @ F,0,0,1,0,0,0,1"
       unit="px"
       method="auto"
       mode="F"
       radius="0.5"
       chamfer_steps="1"
       flexible="false"
       use_knot_distance="true"
       apply_no_radius="true"
       apply_with_radius="true"
       only_selected="true"
       hide_knots="false" />
    <path
       id="a"
       d="M0 0h70v32H0z" />
    <mask
       id="b"
       fill="#ffffff">
      <use
         xlink:href="#a"
         id="use912"
         x="0"
         y="0"
         width="100%"
         height="100%" />
    </mask>
  </defs>
  <metadata
     id="metadata7">
    <rdf:RDF>
      <cc:Work
         rdf:about="">
        <dc:format>image/svg+xml</dc:format>
        <dc:type
           rdf:resource="http://purl.org/dc/dcmitype/StillImage" />
        <dc:title></dc:title>
      </cc:Work>
    </rdf:RDF>
  </metadata>
  <g
     transform="translate(0,-860.36216)"
     id="layer1"
     inkscape:groupmode="layer"
     inkscape:label="Calque 1">
    <circle
       style="fill:#54688c;fill-opacity:1;fill-rule:evenodd;stroke:none;stroke-width:1;stroke-opacity:1"
       cx="96"
       cy="956.36218"
       r="88"
       id="circle1275-6" />
    <path
       id="path1277-7"
       mask="url(#b)"
       style="fill:#ffffff;fill-opacity:1;fill-rule:evenodd"
       transform="matrix(3.3999842,0,0,3.3999842,-104.48167,918.96237)"
       d="m 61.885,10.137 5.17,-6.033 C 67.959347,2.8635159 68.517669,2.293031 68.255878,0.49228566 68.216172,0.219169 68.024362,0.17000556 67.844709,0.37971805 L 60.496,8.958 c -0.644676,0.7518128 -1.148717,1.613561 -1.488,2.544 -0.368813,1.015176 -0.534618,2.092912 -0.488,3.172 L 55.17,10.865 55.166,10.861 C 54.870908,10.539778 54.541623,10.251737 54.184,10.002 53.590881,9.5932338 52.956792,9.2473672 52.292,8.97 c 0.221752,-0.078784 0.447379,-0.146205 0.676,-0.202 0.401044,-0.098196 0.812124,-0.1495391 1.225,-0.153 0.463,0 0.918,0.073 1.354,0.247 0.433,0.175 0.854,0.45 1.263,0.894 A 0.4330668,0.4330668 174.29113 0 0 57.416943,9.695324 L 58.045057,9.1646758 A 0.44308705,0.44308705 102.11495 0 0 58.177,8.55 L 58.166,8.538 C 57.631358,7.9436778 56.969154,7.4780492 56.229,7.176 55.580917,6.9201644 54.889735,6.7911618 54.193,6.796 c -0.157,0 -0.311,0.007 -0.465,0.018 -1.522,0.25 -2.462,1.15 -3.869,1.296 l -0.002,0.001 h -4.77 c -0.105,0 -0.12,0.15 -0.018,0.17 1.252,0.25 3.48,0.728 5.046,1.265 1.19,0.551 2.333,1.255 3.235,2.106 0.177,0.141 0.33,0.282 0.457,0.422 l 4.462,5.073 c 0.570935,0.469335 1.289807,0.730104 2.694476,0.787393 0.275725,0.01125 0.370884,-0.172099 0.23275,-0.411129 C 61.017166,17.213415 60.864179,16.888883 60.739,16.553 60.208942,15.123781 60.203627,13.552774 60.724,12.12 c 0.264753,-0.725368 0.658036,-1.397099 1.161,-1.983 z m 7.615246,11.848182 C 68.041947,21.914432 67.343952,21.612019 66.76,21.075 l -1.002,-1.139 c -0.066,-0.08 -0.133,-0.16 -0.205,-0.244 l 0.011,0.024 -1.775,-2.018 c -1.206536,-1.370466 -1.568217,-3.29048 -0.943,-5.006 0.206579,-0.565232 0.513877,-1.088351 0.907,-1.544 L 67.809962,6.4310764 C 67.990028,6.2217183 68.181607,6.2714016 68.220102,6.5448128 68.482091,8.4055857 67.854634,8.9428355 66.876,10.312 l -1.737,2.018 c -0.497424,0.575633 -0.770785,1.311222 -0.77,2.072 0.0011,0.772368 0.282952,1.517997 0.793,2.098 l 4.507763,5.124576 c 0.182385,0.207341 0.106287,0.373986 -0.169517,0.360606 z" />
  </g>
  <style
     type="text/css"
     id="style853">
	.st0{fill:#FFFFFF;}
</style>
  <style
     type="text/css"
     id="style853-9">
	.st0{fill:#FFFFFF;}
</style>
  <style
     type="text/css"
     id="style853-3">
	.st0{fill:#FFFFFF;}
</style>
</svg>

<svg xmlns="http://www.w3.org/2000/svg" xmlns:xlink="http://www.w3.org/1999/xlink" id="svg2" width="192" height="192" version="1.1"><defs id="defs4"><path id="a" d="M0 0h70v32H0z"/><mask id="b" fill="#fff"><use xlink:href="#a" id="use912" width="100%" height="100%" x="0" y="0"/></mask></defs><g id="layer1" transform="translate(0 -860.362)"><circle id="circle1275-6" cx="96" cy="956.362" r="88" style="fill:#54688c;fill-opacity:1;fill-rule:evenodd;stroke:none;stroke-width:1;stroke-opacity:1"/><path id="path1277-7" d="m61.885 10.137 5.17-6.033c.904-1.24 1.463-1.811 1.2-3.612-.039-.273-.23-.322-.41-.112l-7.349 8.578a8.25 8.25 0 0 0-1.488 2.544 8.247 8.247 0 0 0-.488 3.172l-3.35-3.809-.004-.004a5.992 5.992 0 0 0-.982-.859 10.372 10.372 0 0 0-1.892-1.032 6.92 6.92 0 0 1 .676-.202c.401-.098.812-.15 1.225-.153.463 0 .918.073 1.354.247.433.175.854.45 1.263.894a.433.433 174.291 0 0 .607-.06l.628-.531a.443.443 102.115 0 0 .132-.615l-.011-.012a5.298 5.298 0 0 0-1.937-1.362 5.442 5.442 0 0 0-2.036-.38 6.5 6.5 0 0 0-.465.018c-1.522.25-2.462 1.15-3.869 1.296l-.002.001h-4.77c-.105 0-.12.15-.018.17 1.252.25 3.48.728 5.046 1.265 1.19.551 2.333 1.255 3.235 2.106.177.141.33.282.457.422l4.462 5.073c.57.47 1.29.73 2.694.787.276.012.371-.172.233-.41a6.433 6.433 0 0 1-.472-5.403 6.428 6.428 0 0 1 1.161-1.984zM69.5 21.985c-1.458-.07-2.156-.373-2.74-.91l-1.002-1.139c-.066-.08-.133-.16-.205-.244l.011.024-1.775-2.018a4.99 4.99 0 0 1-.036-6.55l4.057-4.717c.18-.21.372-.16.41.114.262 1.86-.365 2.398-1.344 3.767l-1.737 2.018a3.164 3.164 0 0 0-.77 2.072c.001.772.283 1.518.793 2.098l4.508 5.125c.182.207.106.374-.17.36z" mask="url(#b)" style="fill:#fff;fill-opacity:1;fill-rule:evenodd" transform="matrix(3.39998 0 0 3.39998 -104.482 918.962)"/></g><style id="style853" type="text/css">.st0{fill:#fff}</style></svg>
